fs/feed_20_filled.svg

<svg viewBox="0 0 20 20" fill="none" xmlns="http://www.w3.org/2000/svg" height="1em" width="1em">
  <path d="M12.4688 17H4C2.89543 17 2 16.1046 2 15V4.5C2 3.67157 2.67157 3 3.5 3H10.5C11.3284 3 12 3.67157 12 4.5V6H16.4844C17.2489 6.02255 18 6.59937 18 7.58208V12.5C18 13.3284 17.3284 14 16.5 14H14.3944L13.971 15.8229C13.7816 16.6381 13.1198 17.0204 12.4688 17ZM15.0102 7H12V15.4824C12 16.0829 12.861 16.1816 12.9969 15.5966L14.9402 7.23135C14.9591 7.14993 14.9826 7.07284 15.0102 7ZM5.5 7C5.77614 7 6 6.77614 6 6.5C6 6.22386 5.77614 6 5.5 6C5.22386 6 5 6.22386 5 6.5C5 6.77614 5.22386 7 5.5 7ZM5 10C5 10.2761 5.22386 10.5 5.5 10.5H8.5C8.77614 10.5 9 10.2761 9 10C9 9.72386 8.77614 9.5 8.5 9.5H5.5C5.22386 9.5 5 9.72386 5 10ZM5 13.5C5 13.7761 5.22386 14 5.5 14H8.5C8.77614 14 9 13.7761 9 13.5C9 13.2239 8.77614 13 8.5 13H5.5C5.22386 13 5 13.2239 5 13.5Z" fill="#212121"/>
</svg>

<svg viewBox="0 0 20 20" fill="none" xmlns="http://www.w3.org/2000/svg" height="1em" width="1em">
  <path d="M12.469 17H4a2 2 0 0 1-2-2V4.5A1.5 1.5 0 0 1 3.5 3h7A1.5 1.5 0 0 1 12 4.5V6h4.484C17.25 6.023 18 6.6 18 7.582V12.5a1.5 1.5 0 0 1-1.5 1.5h-2.106l-.423 1.823c-.19.815-.851 1.197-1.502 1.177ZM15.01 7H12v8.482c0 .6.861.7.997.115L14.94 7.23c.02-.081.043-.158.07-.231ZM5.5 7a.5.5 0 1 0 0-1 .5.5 0 0 0 0 1ZM5 10a.5.5 0 0 0 .5.5h3a.5.5 0 0 0 0-1h-3a.5.5 0 0 0-.5.5Zm0 3.5a.5.5 0 0 0 .5.5h3a.5.5 0 0 0 0-1h-3a.5.5 0 0 0-.5.5Z" fill="#212121"/>
</svg>
